X:1
T:Over Bethl’em’s Hillside
T:Over Bethl’em’s Hillside
T:Mabel J. Rosemon & Grant Colfax Tullar
T:Mabel J. Rosemon & Grant Colfax Tullar
T:Courtesy of the Cyber Hymnal™
T:Courtesy of the Cyber Hymnal™
C:Mabel J. Rosemon & Grant Colfax Tullar
Z:Courtesy of the Cyber Hymnal™
%%score ( 1 2 ) ( 3 4 )
L:1/8
Q:1/4=96
M:4/4
K:F
V:1 treble 
V:2 treble 
V:3 bass 
V:4 bass 
V:1
 CFAc dcAF | E2 B2 B4 | EGBc edBc | (z afd c4) | CFAc dcAF | E2 G2 G4 | =Bcd^c edAB | c4 G2 z2 || %8
w: 1.~O- ver Beth- l’em’s hill- side beamed a|glor- ious star,|With its rad- iant beau- ty all so||fair Led the won- drous wise men to|the man- ger|bed, Where the King of kings was cra-|dled there.|
w: 2.~On that night the an- gel bands with|loud ac- claim|Brought the earth the words of joy and||peace, Tell- ing of the Sav- ior who|to earth came|down And His love that nev- er more|shall cease.|
w: 3.~Bless- èd hap- py tid- ings to the|world pro- claim:|Christ the King e- ter- nal comes to-||day; Comes to earth so low- ly as|a lit- tle|child, In our hearts in peace and love|to stay.|
w: 4.~“Peace on earth, good- will to men” the|ang- els sang|On that Christ- mas night so long a-||go, When the ho- ly babe was born|in Beth- le-|hem That the world God’s match- less love|might know.|
"^Refrain" [FA]>[Ac] | [Ad]3 [Ac] [FA][CA][DA][FA] | [Ec]2 E4 [Dc]>[EA] | %11
w: |||
w: * Wait-|ing shep- herds with their flocks|at mid- night Saw|
w: |||
w: |||
 [GB]3 [FB] [EB][DB][^CB][DB] | [CA]6 [FA]>[Ac] | [Ad]3 [Ac] [FA][CA][DA][FA] | %14
w: |||
w: the ra- diance flood- ing o’er|the earth, Heard|the heav’n- ly hosts in chor-|
w: |||
w: |||
 [Ec]2 [EG]4 [E=B]>[EA] | [FG]3 [FA] [F=B][F^A][FB][Fd] | c6 [FA]>[Ac] | %17
w: |||
w: us sing- ing Bless-|èd news of Christ the Sav-|ior’s birth. Earth|
w: |||
w: |||
 [Ad]3 [Ac] [FA][CA][DA][FA] | [Ec]2 E4 [Dc]>[EA] | [GB]3 [FB] [EB][DB][^CB][DB] | %20
w: |||
w: re- spon- ded to that heav’n-|ly mess- age, Peace|on earth, good- will, good- will|
w: |||
w: |||
 [CA]6 [FA]>[Fc] | [Af]3 [Ac] [GB][FA][EG]F | [Fe]2 [Fd]4 [Fe]>[Fd] | %23
w: |||
w: to men; In|ex- ul- tant strain the chor-|us end- ed; O|
w: |||
w: |||
 [Fc][Fc][F=B][Fc] [Ed]2 [Ec]2 | [CF]8 |] %25
w: ||
w: that earth might hear that song|a-|
w: ||
w: ||
V:2
 x8 | x8 | x8 | A4 x4 | x8 | x8 | x8 | E2 F2 x4 || x2 | x8 | x8 | x8 | x8 | x8 | x8 | x8 | %16
 (E2 F2 G2) x2 | x8 | x8 | x8 | x8 | x8 | x8 | x8 | x8 |] %25
V:3
 F,,2 [F,A,C]2 [A,CF]2 [F,A,C]2 | G,,2 [E,G,B,C]2 ([G,B,CE]2 [E,G,B,C]2) | %2
 G,,2 [D,F,B,C]2 [G,B,CE]2 [E,G,B,C]2 | (F,,2 [F,A,C]2 [A,CF]2 [F,A,C]2) | %4
 F,,2 [F,A,C]2 [A,CF]2 [F,A,C]2 | G,,2 [E,G,C]2 ([G,CE]2 [E,G,C]2) | %6
 G,,2 [F,G,=B,]2 [G,B,F]2 [F,G,B,]2 | (G,2 A,2 B,2) z2 || z2 | F,,2 [C,F,A,]2 [F,A,C]2 [C,F,A,]2 | %10
 G,,2 ([C,E,B,]2 [E,B,C]2) [C,E,B,]2 | C,,2 [C,E,B,]2 [E,B,C]2 [C,E,B,]2 | %12
 (F,,2 [C,F,A,]2 [F,A,C]2) [C,F,A,]2 | F,,2 [C,F,A,]2 [F,A,C]2 [C,F,A,]2 | %14
 G,,2 ([E,G,C]2 [G,CE]2) [E,G,C]2 | G,,2 [F,G,=B,]2 D,2 [F,G,B,]2 | (G,2 A,2 B,2) z2 | %17
 F,,2 [C,F,A,]2 [F,A,C]2 [C,F,A,]2 | G,,2 ([C,E,B,]2 [E,B,C]2) [C,E,B,]2 | %19
 C,,2 [C,E,B,]2 [E,B,C]2 [C,E,B,]2 | (F,,2 [C,F,A,]2 [F,A,C]2) [F,C]>[F,C] | %21
 [F,C]3 [F,C] [E,C][F,C][B,C][A,C] | B,2 [B,,B,]4 [^B,,^G,]>[B,,G,] | %23
 [C,A,][C,A,][C,^G,][C,A,] [C,B,]2 [C,B,]2 | [F,A,]8 |] %25
V:4
 x8 | x8 | x8 | x8 | x8 | x8 | x8 | A,,4 x4 || x2 | x8 | x8 | x8 | x8 | x8 | x8 | x8 | C,6 x2 | %17
 x8 | x8 | x8 | x8 | x8 | x8 | x8 | x8 |] %25

